fs/clipboard_text_edit_20_regular.svg

<svg viewBox="0 0 20 20" fill="none" xmlns="http://www.w3.org/2000/svg" height="1em" width="1em">
  <path d="M6 8.5C6 8.22386 6.22386 8 6.5 8H13.5C13.7761 8 14 8.22386 14 8.5C14 8.77614 13.7761 9 13.5 9H6.5C6.22386 9 6 8.77614 6 8.5ZM6.5 11C6.22386 11 6 11.2239 6 11.5C6 11.7761 6.22386 12 6.5 12H9.5C9.77614 12 10 11.7761 10 11.5C10 11.2239 9.77614 11 9.5 11H6.5ZM6 14.5C6 14.2239 6.22386 14 6.5 14H10.9436L10.2736 14.6701C10.1699 14.7737 10.0739 14.884 9.986 15H6.5C6.22386 15 6 14.7761 6 14.5ZM9.22145 17H5.5C5.22386 17 5 16.7761 5 16.5V4.5C5 4.22386 5.22386 4 5.5 4H7.08535C7.29127 4.5826 7.84689 5 8.5 5H11.5C12.1531 5 12.7087 4.5826 12.9146 4H14.5C14.7761 4 15 4.22386 15 4.5V9.94363L15.103 9.84065C15.369 9.57466 15.6742 9.37179 16 9.23205V4.5C16 3.67157 15.3284 3 14.5 3H12.9146C12.7087 2.4174 12.1531 2 11.5 2H8.5C7.84689 2 7.29127 2.4174 7.08535 3H5.5C4.67157 3 4 3.67157 4 4.5V16.5C4 17.3284 4.67157 18 5.5 18H9.00383C9.01113 17.8859 9.02893 17.7701 9.05813 17.6532L9.22145 17ZM12 3.5C12 3.77614 11.7761 4 11.5 4H8.5C8.22386 4 8 3.77614 8 3.5C8 3.22386 8.22386 3 8.5 3H11.5C11.7761 3 12 3.22386 12 3.5ZM10.9798 15.3772L15.8092 10.5478C16.5395 9.81741 17.7237 9.81741 18.454 10.5478C19.1843 11.2781 19.1843 12.4622 18.454 13.1926L13.6246 18.022C13.343 18.3036 12.9902 18.5033 12.6039 18.5999L11.106 18.9744C10.4546 19.1372 9.86451 18.5472 10.0274 17.8958L10.4018 16.3979C10.4984 16.0116 10.6982 15.6588 10.9798 15.3772Z" fill="#212121"/>
</svg>

<svg viewBox="0 0 20 20" fill="none" xmlns="http://www.w3.org/2000/svg" height="1em" width="1em">
  <path d="M6 8.5a.5.5 0 0 1 .5-.5h7a.5.5 0 0 1 0 1h-7a.5.5 0 0 1-.5-.5Zm.5 2.5a.5.5 0 0 0 0 1h3a.5.5 0 0 0 0-1h-3ZM6 14.5a.5.5 0 0 1 .5-.5h4.444l-.67.67a3.21 3.21 0 0 0-.288.33H6.5a.5.5 0 0 1-.5-.5ZM9.221 17H5.5a.5.5 0 0 1-.5-.5v-12a.5.5 0 0 1 .5-.5h1.585A1.5 1.5 0 0 0 8.5 5h3a1.5 1.5 0 0 0 1.415-1H14.5a.5.5 0 0 1 .5.5v5.444l.103-.103c.266-.266.571-.47.897-.609V4.5A1.5 1.5 0 0 0 14.5 3h-1.585A1.5 1.5 0 0 0 11.5 2h-3a1.5 1.5 0 0 0-1.415 1H5.5A1.5 1.5 0 0 0 4 4.5v12A1.5 1.5 0 0 0 5.5 18h3.504a1.94 1.94 0 0 1 .054-.347L9.221 17ZM12 3.5a.5.5 0 0 1-.5.5h-3a.5.5 0 0 1 0-1h3a.5.5 0 0 1 .5.5Zm-1.02 11.877 4.83-4.83a1.87 1.87 0 1 1 2.644 2.646l-4.83 4.829a2.197 2.197 0 0 1-1.02.578l-1.498.374a.89.89 0 0 1-1.079-1.078l.375-1.498a2.18 2.18 0 0 1 .578-1.02Z" fill="#212121"/>
</svg>
